src/assets/svg/icons/fa/nuevos/classic/light/trash-can-xmark classic light.svg

<svg xmlns="http://www.w3.org/2000/svg" viewBox="0 0 448 512"><path d="M148.7 212.7C154.9 206.4 165.1 206.4 171.3 212.7L224 265.4L276.7 212.7C282.9 206.4 293.1 206.4 299.3 212.7C305.6 218.9 305.6 229.1 299.3 235.3L246.6 288L299.3 340.7C305.6 346.9 305.6 357.1 299.3 363.3C293.1 369.6 282.9 369.6 276.7 363.3L224 310.6L171.3 363.3C165.1 369.6 154.9 369.6 148.7 363.3C142.4 357.1 142.4 346.9 148.7 340.7L201.4 288L148.7 235.3C142.4 229.1 142.4 218.9 148.7 212.7zM310.1 22.56L336.9 64H432C440.8 64 448 71.16 448 80C448 88.84 440.8 96 432 96H416V432C416 476.2 380.2 512 336 512H112C67.82 512 32 476.2 32 432V96H16C7.164 96 0 88.84 0 80C0 71.16 7.164 64 16 64H111.1L137 22.56C145.8 8.526 161.2 0 177.7 0H270.3C286.8 0 302.2 8.526 310.1 22.56V22.56zM148.9 64H299.1L283.8 39.52C280.9 34.84 275.8 32 270.3 32H177.7C172.2 32 167.1 34.84 164.2 39.52L148.9 64zM64 432C64 458.5 85.49 480 112 480H336C362.5 480 384 458.5 384 432V96H64V432z"/></svg>

<svg xmlns="http://www.w3.org/2000/svg" viewBox="0 0 448 512"><!--! Font Awesome Pro 6.4.0 by @fontawesome - https://fontawesome.com License - https://fontawesome.com/license (Commercial License) Copyright 2023 Fonticons, Inc. --><path d="M164.2 39.5L148.9 64H299.1L283.8 39.5c-2.9-4.7-8.1-7.5-13.6-7.5H177.7c-5.5 0-10.6 2.8-13.6 7.5zM311 22.6L336.9 64H384h32 16c8.8 0 16 7.2 16 16s-7.2 16-16 16H416V432c0 44.2-35.8 80-80 80H112c-44.2 0-80-35.8-80-80V96H16C7.2 96 0 88.8 0 80s7.2-16 16-16H32 64h47.1L137 22.6C145.8 8.5 161.2 0 177.7 0h92.5c16.6 0 31.9 8.5 40.7 22.6zM64 96V432c0 26.5 21.5 48 48 48H336c26.5 0 48-21.5 48-48V96H64zm84.7 116.7c6.2-6.2 16.4-6.2 22.6 0L224 265.4l52.7-52.7c6.2-6.2 16.4-6.2 22.6 0s6.2 16.4 0 22.6L246.6 288l52.7 52.7c6.2 6.2 6.2 16.4 0 22.6s-16.4 6.2-22.6 0L224 310.6l-52.7 52.7c-6.2 6.2-16.4 6.2-22.6 0s-6.2-16.4 0-22.6L201.4 288l-52.7-52.7c-6.2-6.2-6.2-16.4 0-22.6z"/></svg>
